resources/haticons/SVG/addchart.svg

<!-- Generated by IcoMoon.io -->
<svg version="1.1" xmlns="http://www.w3.org/2000/svg" width="24" height="24" viewBox="0 0 24 24">
<title>addchart</title>
<path d="M21.984 5.016v1.969h-3v3h-1.969v-3h-3v-1.969h3v-3h1.969v3h3zM18.984 18.984h-13.969v-13.969h6v-2.016h-6q-0.844 0-1.43 0.586t-0.586 1.43v13.969q0 0.844 0.586 1.43t1.43 0.586h13.969q0.844 0 1.43-0.586t0.586-1.43v-6h-2.016v6zM15 12.984v4.031h2.016v-4.031h-2.016zM11.016 17.016h1.969v-8.016h-1.969v8.016zM9 17.016v-6h-2.016v6h2.016z"></path>
</svg>

<svg xmlns="http://www.w3.org/2000/svg" width="24" height="24"><path d="M21.984 5.016v1.969h-3v3h-1.969v-3h-3V5.016h3v-3h1.969v3h3zm-3 13.968H5.015V5.015h6V2.999h-6q-.844 0-1.43.586t-.586 1.43v13.969q0 .844.586 1.43t1.43.586h13.969q.844 0 1.43-.586t.586-1.43v-6h-2.016v6zm-3.984-6v4.031h2.016v-4.031H15zm-3.984 4.032h1.969V9h-1.969v8.016zm-2.016 0v-6H6.984v6H9z"/></svg>
